icons/modern/alien.svg

<svg width="34" height="32" viewBox="0 0 34 32" fill="none" xmlns="http://www.w3.org/2000/svg">
	<path d="M31.92 15.9201C31.92 23.6101 21 30.0001 18 30.0001C15 30.0001 4.08002 23.6101 4.08002 15.9201C4.08002 8.23012 10.31 2.00012 18 2.00012C25.69 2.00012 31.92 8.23012 31.92 15.9201Z" fill="url(#paint0_radial_6888_5229)" />
	<path d="M31.92 15.9201C31.92 23.6101 21 30.0001 18 30.0001C15 30.0001 4.08002 23.6101 4.08002 15.9201C4.08002 8.23012 10.31 2.00012 18 2.00012C25.69 2.00012 31.92 8.23012 31.92 15.9201Z" fill="url(#paint1_radial_6888_5229)" />
	<path d="M31.92 15.9201C31.92 23.6101 21 30.0001 18 30.0001C15 30.0001 4.08002 23.6101 4.08002 15.9201C4.08002 8.23012 10.31 2.00012 18 2.00012C25.69 2.00012 31.92 8.23012 31.92 15.9201Z" fill="url(#paint2_radial_6888_5229)" />
	<g filter="url(#filter0_f_6888_5229)">
		<path transform="rotate(-43.7154 24.3521 9.90094)" fill="#9EFCA0" d="M20.5513 9.9009a3.8008 5.7188 0 1 0 7.6016 0a3.8008 5.7188 0 1 0 -7.6016 0" />
	</g>
	<g filter="url(#filter1_f_6888_5229)">
		<path transform="matrix(-0.823108 -0.567885 -0.567885 0.823108 8.00851 9.5632)" fill="#BAEEBC" fill-opacity="0.75" d="M-1.0122 0a1.0122 3.2532 0 1 0 2.0244 0a1.0122 3.2532 0 1 0 -2.0244 0" />
	</g>
	<g filter="url(#filter2_f_6888_5229)">
		<path d="M14.7309 21.1942C12.4152 23.5763 9.40406 22.6226 7.07769 20.2296C4.75131 17.8365 4.00199 14.9328 6.31774 12.5397C8.63349 10.1467 12.4046 10.1576 14.7203 12.5397C17.0361 14.9219 17.0573 18.812 14.7309 21.1942Z" fill="#608D6A" fill-opacity="0.75" />
	</g>
	<g filter="url(#filter3_f_6888_5229)">
		<path d="M20.1706 21.3894C22.0212 23.4342 24.4275 22.6156 26.2866 20.5614C28.1457 18.5072 28.7445 16.0147 26.8939 13.9605C25.0433 11.9063 22.0297 11.9157 20.179 13.9605C18.3284 16.0053 18.3115 19.3446 20.1706 21.3894Z" fill="#608D6A" fill-opacity="0.75" />
	</g>
	<path d="M15.36 20.7802C13.18 22.9602 10.9 21.7002 8.71 19.5102C6.52 17.3202 5.26 15.0502 7.44 12.8602C9.62 10.6702 13.17 10.6802 15.35 12.8602C17.53 15.0402 17.55 18.6002 15.36 20.7802Z" fill="url(#paint3_radial_6888_5229)" />
	<path d="M15.36 20.7802C13.18 22.9602 10.9 21.7002 8.71 19.5102C6.52 17.3202 5.26 15.0502 7.44 12.8602C9.62 10.6702 13.17 10.6802 15.35 12.8602C17.53 15.0402 17.55 18.6002 15.36 20.7802Z" fill="url(#paint4_radial_6888_5229)" />
	<path d="M15.36 20.7802C13.18 22.9602 10.9 21.7002 8.71 19.5102C6.52 17.3202 5.26 15.0502 7.44 12.8602C9.62 10.6702 13.17 10.6802 15.35 12.8602C17.53 15.0402 17.55 18.6002 15.36 20.7802Z" fill="url(#paint5_radial_6888_5229)" />
	<path d="M20.64 20.7802C22.82 22.9602 25.1 21.7002 27.29 19.5102C29.48 17.3202 30.74 15.0502 28.56 12.8602C26.38 10.6702 22.83 10.6802 20.65 12.8602C18.47 15.0402 18.46 18.6002 20.64 20.7802Z" fill="url(#paint6_radial_6888_5229)" />
	<path d="M20.64 20.7802C22.82 22.9602 25.1 21.7002 27.29 19.5102C29.48 17.3202 30.74 15.0502 28.56 12.8602C26.38 10.6702 22.83 10.6802 20.65 12.8602C18.47 15.0402 18.46 18.6002 20.64 20.7802Z" fill="url(#paint7_radial_6888_5229)" />
	<path d="M20.64 20.7802C22.82 22.9602 25.1 21.7002 27.29 19.5102C29.48 17.3202 30.74 15.0502 28.56 12.8602C26.38 10.6702 22.83 10.6802 20.65 12.8602C18.47 15.0402 18.46 18.6002 20.64 20.7802Z" fill="url(#paint8_radial_6888_5229)" />
	<path d="M20.64 20.7802C22.82 22.9602 25.1 21.7002 27.29 19.5102C29.48 17.3202 30.74 15.0502 28.56 12.8602C26.38 10.6702 22.83 10.6802 20.65 12.8602C18.47 15.0402 18.46 18.6002 20.64 20.7802Z" fill="url(#paint9_radial_6888_5229)" />
	<g filter="url(#filter4_f_6888_5229)">
		<path d="M27.5251 13.2662C29.1581 14.0626 28.9939 15.735 28.1501 16.6412" stroke="#686061" stroke-width="0.75" stroke-linecap="round" />
	</g>
	<path d="M27.67 13.1101C28.45 13.8901 28.59 15.0101 27.98 15.6201C27.37 16.2301 26.25 16.0901 25.47 15.3101C24.69 14.5301 24.55 13.4101 25.16 12.8001C25.77 12.1901 26.9 12.3401 27.67 13.1101Z" fill="url(#paint10_linear_6888_5229)" />
	<g filter="url(#filter5_f_6888_5229)">
		<path d="M14.7363 14.3439C15.1784 14.9689 15.6415 16.8096 14.916 18.9971" stroke="#686061" stroke-width="0.75" stroke-linecap="round" />
	</g>
	<path d="M14.39 13.1101C15.17 13.8901 15.31 15.0101 14.7 15.6201C14.09 16.2301 12.97 16.0901 12.19 15.3101C11.41 14.5301 11.27 13.4101 11.88 12.8001C12.49 12.1901 13.61 12.3401 14.39 13.1101Z" fill="url(#paint11_linear_6888_5229)" />
	<path d="M15.9922 25.047C15.9922 25.047 16.7812 25.8907 18.0156 25.8907C19.25 25.8907 20.0078 25.047 20.0078 25.047" stroke="url(#paint12_radial_6888_5229)" stroke-width="1.8" stroke-linecap="round" stroke-linejoin="round" />
	<defs>
		<filter id="filter0_f_6888_5229" x="15.5386" y="1.00293" width="17.627" height="17.796" filterUnits="userSpaceOnUse" color-interpolation-filters="sRGB">
			<feFlood flood-opacity="0" result="BackgroundImageFix">
			</feFlood>
			<feBlend mode="normal" in="SourceGraphic" in2="BackgroundImageFix" result="shape">
			</feBlend>
			<feGaussianBlur stdDeviation="2" result="effect1_foregroundBlur_6888_5229">
			</feGaussianBlur>
		</filter>
		<filter id="filter1_f_6888_5229" x="2.98145" y="3.82397" width="10.0541" height="11.4785" filterUnits="userSpaceOnUse" color-interpolation-filters="sRGB">
			<feFlood flood-opacity="0" result="BackgroundImageFix">
			</feFlood>
			<feBlend mode="normal" in="SourceGraphic" in2="BackgroundImageFix" result="shape">
			</feBlend>
			<feGaussianBlur stdDeviation="1.5" result="effect1_foregroundBlur_6888_5229">
			</feGaussianBlur>
		</filter>
		<filter id="filter2_f_6888_5229" x="0.911682" y="6.74902" width="19.5547" height="19.824" filterUnits="userSpaceOnUse" color-interpolation-filters="sRGB">
			<feFlood flood-opacity="0" result="BackgroundImageFix">
			</feFlood>
			<feBlend mode="normal" in="SourceGraphic" in2="BackgroundImageFix" result="shape">
			</feBlend>
			<feGaussianBlur stdDeviation="2" result="effect1_foregroundBlur_6888_5229">
			</feGaussianBlur>
		</filter>
		<filter id="filter3_f_6888_5229" x="14.7836" y="8.42334" width="17.2339" height="18.1497" filterUnits="userSpaceOnUse" color-interpolation-filters="sRGB">
			<feFlood flood-opacity="0" result="BackgroundImageFix">
			</feFlood>
			<feBlend mode="normal" in="SourceGraphic" in2="BackgroundImageFix" result="shape">
			</feBlend>
			<feGaussianBlur stdDeviation="2" result="effect1_foregroundBlur_6888_5229">
			</feGaussianBlur>
		</filter>
		<filter id="filter4_f_6888_5229" x="25.6501" y="11.3911" width="4.99951" height="7.12512" filterUnits="userSpaceOnUse" color-interpolation-filters="sRGB">
			<feFlood flood-opacity="0" result="BackgroundImageFix">
			</feFlood>
			<feBlend mode="normal" in="SourceGraphic" in2="BackgroundImageFix" result="shape">
			</feBlend>
			<feGaussianBlur stdDeviation="0.75" result="effect1_foregroundBlur_6888_5229">
			</feGaussianBlur>
		</filter>
		<filter id="filter5_f_6888_5229" x="12.8613" y="12.4689" width="4.30829" height="8.40332" filterUnits="userSpaceOnUse" color-interpolation-filters="sRGB">
			<feFlood flood-opacity="0" result="BackgroundImageFix">
			</feFlood>
			<feBlend mode="normal" in="SourceGraphic" in2="BackgroundImageFix" result="shape">
			</feBlend>
			<feGaussianBlur stdDeviation="0.75" result="effect1_foregroundBlur_6888_5229">
			</feGaussianBlur>
		</filter>
		<radialGradient id="paint0_radial_6888_5229" cx="0" cy="0" r="1" gradientUnits="userSpaceOnUse" gradientTransform="translate(25.955 29.1251) rotate(-124.672) scale(29.3341 85.8278)">
			<stop offset="0.393454" stop-color="#92E65B">
			</stop>
			<stop offset="1" stop-color="#4AF492">
			</stop>
			<stop offset="1" stop-color="#6BD179">
			</stop>
		</radialGradient>
		<radialGradient id="paint1_radial_6888_5229" cx="0" cy="0" r="1" gradientUnits="userSpaceOnUse" gradientTransform="translate(19.6425 17.8126) rotate(-153.522) scale(18.5035 22.2682)">
			<stop offset="0.553104" stop-color="#67B077" stop-opacity="0">
			</stop>
			<stop offset="1" stop-color="#67B077">
			</stop>
		</radialGradient>
		<radialGradient id="paint2_radial_6888_5229" cx="0" cy="0" r="1" gradientUnits="userSpaceOnUse" gradientTransform="translate(19.6425 17.8126) rotate(-137.076) scale(20.7407 20.4878)">
			<stop offset="0.760417" stop-color="#608D6A" stop-opacity="0">
			</stop>
			<stop offset="1" stop-color="#608D6A">
			</stop>
		</radialGradient>
		<radialGradient id="paint3_radial_6888_5229" cx="0" cy="0" r="1" gradientUnits="userSpaceOnUse" gradientTransform="translate(14.145 25.1178) rotate(-106.489) scale(11.7042 14.5244)">
			<stop stop-color="#482641">
			</stop>
			<stop offset="0.234375" stop-color="#4A2943">
			</stop>
			<stop offset="1" stop-color="#654F5F">
			</stop>
		</radialGradient>
		<radialGradient id="paint4_radial_6888_5229" cx="0" cy="0" r="1" gradientUnits="userSpaceOnUse" gradientTransform="translate(13.1738 17.9377) rotate(-142.786) scale(11.105 7.13314)">
			<stop offset="0.53125" stop-color="#1A1819" stop-opacity="0">
			</stop>
			<stop offset="0.979459" stop-color="#1A1819">
			</stop>
		</radialGradient>
		<radialGradient id="paint5_radial_6888_5229" cx="0" cy="0" r="1" gradientUnits="userSpaceOnUse" gradientTransform="translate(18.8925 20.6564) rotate(-153.486) scale(15.5407 11.8197)">
			<stop offset="0.857975" stop-color="#A28D8F" stop-opacity="0">
			</stop>
			<stop offset="1" stop-color="#A28D8F">
			</stop>
		</radialGradient>
		<radialGradient id="paint6_radial_6888_5229" cx="0" cy="0" r="1" gradientUnits="userSpaceOnUse" gradientTransform="translate(26.8465 25.1178) rotate(-106.483) scale(11.7039 14.5197)">
			<stop stop-color="#482641">
			</stop>
			<stop offset="0.234375" stop-color="#4A2943">
			</stop>
			<stop offset="1" stop-color="#654F5F">
			</stop>
		</radialGradient>
		<radialGradient id="paint7_radial_6888_5229" cx="0" cy="0" r="1" gradientUnits="userSpaceOnUse" gradientTransform="translate(25.6425 17.1877) rotate(-139.304) scale(9.15014 7.86603)">
			<stop offset="0.494858" stop-color="#1A1819" stop-opacity="0">
			</stop>
			<stop offset="0.979459" stop-color="#1A1819">
			</stop>
		</radialGradient>
		<radialGradient id="paint8_radial_6888_5229" cx="0" cy="0" r="1" gradientUnits="userSpaceOnUse" gradientTransform="translate(19.3925 13.2502) rotate(22.7928) scale(12.7453 20.3749)">
			<stop offset="0.713432" stop-color="#1A1819" stop-opacity="0">
			</stop>
			<stop offset="0.979459" stop-color="#1A1819">
			</stop>
		</radialGradient>
		<radialGradient id="paint9_radial_6888_5229" cx="0" cy="0" r="1" gradientUnits="userSpaceOnUse" gradientTransform="translate(31.5924 20.6564) rotate(-153.478) scale(15.5363 11.8189)">
			<stop offset="0.857975" stop-color="#A28D8F" stop-opacity="0">
			</stop>
			<stop offset="1" stop-color="#A28D8F">
			</stop>
		</radialGradient>
		<linearGradient id="paint10_linear_6888_5229" x1="26.57" y1="12.0543" x2="26.4823" y2="16" gradientUnits="userSpaceOnUse">
			<stop offset="0.197917" stop-color="white">
			</stop>
			<stop offset="1" stop-color="white" stop-opacity="0">
			</stop>
		</linearGradient>
		<linearGradient id="paint11_linear_6888_5229" x1="13.29" y1="12.0543" x2="13.2023" y2="16" gradientUnits="userSpaceOnUse">
			<stop offset="0.197917" stop-color="white">
			</stop>
			<stop offset="1" stop-color="white" stop-opacity="0">
			</stop>
		</linearGradient>
		<radialGradient id="paint12_radial_6888_5229" cx="0" cy="0" r="1" gradientUnits="userSpaceOnUse" gradientTransform="translate(18.1738 22.3126) rotate(90) scale(11.3438 9.83652)">
			<stop offset="0.069602" stop-color="#2E1529">
			</stop>
			<stop offset="0.29711" stop-color="#5F4357">
			</stop>
			<stop offset="0.437882" stop-color="#4B2744">
			</stop>
		</radialGradient>
	</defs>
</svg>

<svg width="34" height="32" fill="none" xmlns="http://www.w3.org/2000/svg"><path d="M31.92 15.92C31.92 23.61 21 30 18 30S4.08 23.61 4.08 15.92 10.31 2 18 2c7.69 0 13.92 6.23 13.92 13.92Z" fill="url(#a)"/><path d="M31.92 15.92C31.92 23.61 21 30 18 30S4.08 23.61 4.08 15.92 10.31 2 18 2c7.69 0 13.92 6.23 13.92 13.92Z" fill="url(#b)"/><path d="M31.92 15.92C31.92 23.61 21 30 18 30S4.08 23.61 4.08 15.92 10.31 2 18 2c7.69 0 13.92 6.23 13.92 13.92Z" fill="url(#c)"/><g filter="url(#d)"><path fill="#9EFCA0" d="M21.605 12.528a5.719 3.8 46.285 1 0 5.494-5.254 5.719 3.8 46.285 1 0-5.494 5.254"/></g><g filter="url(#e)"><path fill="#BAEEBC" fill-opacity=".75" d="M8.842 10.138a3.253 1.012-55.397 1 1-1.667-1.15 3.253 1.012-55.397 1 1 1.667 1.15"/></g><g filter="url(#f)"><path d="M14.73 21.194c-2.315 2.382-5.326 1.429-7.652-.964-2.327-2.393-3.076-5.297-.76-7.69a5.824 5.824 0 0 1 8.402 0c2.316 2.382 2.337 6.272.01 8.654Z" fill="#608D6A" fill-opacity=".75"/></g><g filter="url(#g)"><path d="M20.17 21.39c1.851 2.044 4.257 1.226 6.117-.829 1.859-2.054 2.457-4.546.607-6.6-1.85-2.055-4.864-2.045-6.715 0-1.85 2.044-1.867 5.384-.008 7.428Z" fill="#608D6A" fill-opacity=".75"/></g><path d="M15.36 20.78c-2.18 2.18-4.46.92-6.65-1.27-2.19-2.19-3.45-4.46-1.27-6.65 2.18-2.19 5.73-2.18 7.91 0 2.18 2.18 2.2 5.74.01 7.92Z" fill="url(#h)"/><path d="M15.36 20.78c-2.18 2.18-4.46.92-6.65-1.27-2.19-2.19-3.45-4.46-1.27-6.65 2.18-2.19 5.73-2.18 7.91 0 2.18 2.18 2.2 5.74.01 7.92Z" fill="url(#i)"/><path d="M15.36 20.78c-2.18 2.18-4.46.92-6.65-1.27-2.19-2.19-3.45-4.46-1.27-6.65 2.18-2.19 5.73-2.18 7.91 0 2.18 2.18 2.2 5.74.01 7.92Z" fill="url(#j)"/><path d="M20.64 20.78c2.18 2.18 4.46.92 6.65-1.27 2.19-2.19 3.45-4.46 1.27-6.65-2.18-2.19-5.73-2.18-7.91 0-2.18 2.18-2.19 5.74-.01 7.92Z" fill="url(#k)"/><path d="M20.64 20.78c2.18 2.18 4.46.92 6.65-1.27 2.19-2.19 3.45-4.46 1.27-6.65-2.18-2.19-5.73-2.18-7.91 0-2.18 2.18-2.19 5.74-.01 7.92Z" fill="url(#l)"/><path d="M20.64 20.78c2.18 2.18 4.46.92 6.65-1.27 2.19-2.19 3.45-4.46 1.27-6.65-2.18-2.19-5.73-2.18-7.91 0-2.18 2.18-2.19 5.74-.01 7.92Z" fill="url(#m)"/><path d="M20.64 20.78c2.18 2.18 4.46.92 6.65-1.27 2.19-2.19 3.45-4.46 1.27-6.65-2.18-2.19-5.73-2.18-7.91 0-2.18 2.18-2.19 5.74-.01 7.92Z" fill="url(#n)"/><g filter="url(#o)"><path d="M27.525 13.266c1.633.797 1.469 2.469.625 3.375" stroke="#686061" stroke-width=".75" stroke-linecap="round"/></g><path d="M27.67 13.11c.78.78.92 1.9.31 2.51-.61.61-1.73.47-2.51-.31-.78-.78-.92-1.9-.31-2.51.61-.61 1.74-.46 2.51.31Z" fill="url(#p)"/><g filter="url(#q)"><path d="M14.736 14.344c.442.625.905 2.466.18 4.653" stroke="#686061" stroke-width=".75" stroke-linecap="round"/></g><path d="M14.39 13.11c.78.78.92 1.9.31 2.51-.61.61-1.73.47-2.51-.31-.78-.78-.92-1.9-.31-2.51.61-.61 1.73-.46 2.51.31Z" fill="url(#r)"/><path d="M15.992 25.047s.79.844 2.024.844 1.992-.844 1.992-.844" stroke="url(#s)" stroke-width="1.8" stroke-linecap="round" stroke-linejoin="round"/><defs><radialGradient id="a" cx="0" cy="0" r="1" gradientUnits="userSpaceOnUse" gradientTransform="rotate(-124.672 20.611 7.76) scale(29.3341 85.8278)"><stop offset=".393" stop-color="#92E65B"/><stop offset="1" stop-color="#4AF492"/><stop offset="1" stop-color="#6BD179"/></radialGradient><radialGradient id="b" cx="0" cy="0" r="1" gradientUnits="userSpaceOnUse" gradientTransform="rotate(-153.522 11.917 6.596) scale(18.5035 22.2682)"><stop offset=".553" stop-color="#67B077" stop-opacity="0"/><stop offset="1" stop-color="#67B077"/></radialGradient><radialGradient id="c" cx="0" cy="0" r="1" gradientUnits="userSpaceOnUse" gradientTransform="rotate(-137.076 13.323 5.045) scale(20.7407 20.4878)"><stop offset=".76" stop-color="#608D6A" stop-opacity="0"/><stop offset="1" stop-color="#608D6A"/></radialGradient><radialGradient id="h" cx="0" cy="0" r="1" gradientUnits="userSpaceOnUse" gradientTransform="matrix(-3.32202 -11.22286 13.92707 -4.12248 14.145 25.118)"><stop stop-color="#482641"/><stop offset=".234" stop-color="#4A2943"/><stop offset="1" stop-color="#654F5F"/></radialGradient><radialGradient id="i" cx="0" cy="0" r="1" gradientUnits="userSpaceOnUse" gradientTransform="rotate(-142.786 9.606 6.751) scale(11.105 7.13314)"><stop offset=".531" stop-color="#1A1819" stop-opacity="0"/><stop offset=".979" stop-color="#1A1819"/></radialGradient><radialGradient id="j" cx="0" cy="0" r="1" gradientUnits="userSpaceOnUse" gradientTransform="rotate(-153.486 11.88 8.103) scale(15.5407 11.8197)"><stop offset=".858" stop-color="#A28D8F" stop-opacity="0"/><stop offset="1" stop-color="#A28D8F"/></radialGradient><radialGradient id="k" cx="0" cy="0" r="1" gradientUnits="userSpaceOnUse" gradientTransform="matrix(-3.32076 -11.22292 13.923 -4.11969 26.846 25.118)"><stop stop-color="#482641"/><stop offset=".234" stop-color="#4A2943"/><stop offset="1" stop-color="#654F5F"/></radialGradient><radialGradient id="l" cx="0" cy="0" r="1" gradientUnits="userSpaceOnUse" gradientTransform="matrix(-6.93745 -5.9663 5.129 -5.96387 25.642 17.188)"><stop offset=".495" stop-color="#1A1819" stop-opacity="0"/><stop offset=".979" stop-color="#1A1819"/></radialGradient><radialGradient id="m" cx="0" cy="0" r="1" gradientUnits="userSpaceOnUse" gradientTransform="rotate(22.793 -23.171 54.729) scale(12.7453 20.3749)"><stop offset=".713" stop-color="#1A1819" stop-opacity="0"/><stop offset=".979" stop-color="#1A1819"/></radialGradient><radialGradient id="n" cx="0" cy="0" r="1" gradientUnits="userSpaceOnUse" gradientTransform="rotate(-153.478 18.23 6.605) scale(15.5363 11.8189)"><stop offset=".858" stop-color="#A28D8F" stop-opacity="0"/><stop offset="1" stop-color="#A28D8F"/></radialGradient><radialGradient id="s" cx="0" cy="0" r="1" gradientUnits="userSpaceOnUse" gradientTransform="matrix(0 11.3438 -9.83652 0 18.174 22.313)"><stop offset=".07" stop-color="#2E1529"/><stop offset=".297" stop-color="#5F4357"/><stop offset=".438" stop-color="#4B2744"/></radialGradient><filter id="d" x="15.539" y="1.003" width="17.627" height="17.796" filterUnits="userSpaceOnUse" color-interpolation-filters="sRGB"><feFlood flood-opacity="0" result="BackgroundImageFix"/><feBlend in="SourceGraphic" in2="BackgroundImageFix" result="shape"/><feGaussianBlur stdDeviation="2" result="effect1_foregroundBlur_6888_5229"/></filter><filter id="e" x="2.981" y="3.824" width="10.054" height="11.479" filterUnits="userSpaceOnUse" color-interpolation-filters="sRGB"><feFlood flood-opacity="0" result="BackgroundImageFix"/><feBlend in="SourceGraphic" in2="BackgroundImageFix" result="shape"/><feGaussianBlur stdDeviation="1.5" result="effect1_foregroundBlur_6888_5229"/></filter><filter id="f" x=".912" y="6.749" width="19.555" height="19.824" filterUnits="userSpaceOnUse" color-interpolation-filters="sRGB"><feFlood flood-opacity="0" result="BackgroundImageFix"/><feBlend in="SourceGraphic" in2="BackgroundImageFix" result="shape"/><feGaussianBlur stdDeviation="2" result="effect1_foregroundBlur_6888_5229"/></filter><filter id="g" x="14.784" y="8.423" width="17.234" height="18.15" filterUnits="userSpaceOnUse" color-interpolation-filters="sRGB"><feFlood flood-opacity="0" result="BackgroundImageFix"/><feBlend in="SourceGraphic" in2="BackgroundImageFix" result="shape"/><feGaussianBlur stdDeviation="2" result="effect1_foregroundBlur_6888_5229"/></filter><filter id="o" x="25.65" y="11.391" width="5" height="7.125" filterUnits="userSpaceOnUse" color-interpolation-filters="sRGB"><feFlood flood-opacity="0" result="BackgroundImageFix"/><feBlend in="SourceGraphic" in2="BackgroundImageFix" result="shape"/><feGaussianBlur stdDeviation=".75" result="effect1_foregroundBlur_6888_5229"/></filter><filter id="q" x="12.861" y="12.469" width="4.308" height="8.403" filterUnits="userSpaceOnUse" color-interpolation-filters="sRGB"><feFlood flood-opacity="0" result="BackgroundImageFix"/><feBlend in="SourceGraphic" in2="BackgroundImageFix" result="shape"/><feGaussianBlur stdDeviation=".75" result="effect1_foregroundBlur_6888_5229"/></filter><linearGradient id="p" x1="26.57" y1="12.054" x2="26.482" y2="16" gradientUnits="userSpaceOnUse"><stop offset=".198" stop-color="#fff"/><stop offset="1" stop-color="#fff" stop-opacity="0"/></linearGradient><linearGradient id="r" x1="13.29" y1="12.054" x2="13.202" y2="16" gradientUnits="userSpaceOnUse"><stop offset=".198" stop-color="#fff"/><stop offset="1" stop-color="#fff" stop-opacity="0"/></linearGradient></defs></svg>
